assets/icon/icon_linux.svg

<?xml version="1.0" encoding="UTF-8" standalone="no"?>
<svg
   xmlns:dc="http://purl.org/dc/elements/1.1/"
   xmlns:cc="http://creativecommons.org/ns#"
   xmlns:rdf="http://www.w3.org/1999/02/22-rdf-syntax-ns#"
   xmlns:svg="http://www.w3.org/2000/svg"
   xmlns="http://www.w3.org/2000/svg"
   xmlns:sodipodi="http://sodipodi.sourceforge.net/DTD/sodipodi-0.dtd"
   xmlns:inkscape="http://www.inkscape.org/namespaces/inkscape"
   width="128"
   height="128"
   viewBox="0 0 128 128"
   fill="none"
   version="1.1"
   id="svg17"
   sodipodi:docname="icon_linux.svg"
   inkscape:version="1.0.2 (e86c870879, 2021-01-15)">
  <metadata
     id="metadata21">
    <rdf:RDF>
      <cc:Work
         rdf:about="">
        <dc:format>image/svg+xml</dc:format>
        <dc:type
           rdf:resource="http://purl.org/dc/dcmitype/StillImage" />
        <dc:title></dc:title>
      </cc:Work>
    </rdf:RDF>
  </metadata>
  <sodipodi:namedview
     pagecolor="#ffffff"
     bordercolor="#666666"
     borderopacity="1"
     objecttolerance="10"
     gridtolerance="10"
     guidetolerance="10"
     inkscape:pageopacity="0"
     inkscape:pageshadow="2"
     inkscape:window-width="2556"
     inkscape:window-height="1383"
     id="namedview19"
     showgrid="false"
     inkscape:zoom="4.8945048"
     inkscape:cx="39.606047"
     inkscape:cy="34.344666"
     inkscape:window-x="0"
     inkscape:window-y="0"
     inkscape:window-maximized="1"
     inkscape:current-layer="svg17"
     inkscape:document-rotation="0" />
  <rect
     width="128"
     height="128"
     fill="#ffffff"
     id="rect2"
     x="0"
     y="0"
     style="stroke-width:0.125" />
  <path
     d="M 0,0 H 127.99999 V 128 H 0 Z"
     fill="url(#paint0_linear)"
     id="path4"
     style="fill:url(#paint0_linear);stroke-width:0.125" />
  <path
     fill-rule="evenodd"
     clip-rule="evenodd"
     d="m 103.63424,91.109251 -4.041245,-3.669502 c -3.51575,5.613627 -8.24175,10.358752 -13.827502,13.883501 -5.585872,3.52475 -11.88837,5.73875 -18.440122,6.47788 -6.551872,0.73925 -13.184875,-0.0155 -19.407499,-2.20813 C 41.695373,103.4005 36.042997,99.826251 31.379749,95.135376 27.926872,91.674 25.075624,87.654 22.944749,83.242749 36.473373,99.335376 71.305747,95.931125 92.609245,81.120752 L 86.459744,75.594624 C 103.8535,68.476373 107.80937,58.661749 107.89487,58.484875 c 2.33662,11.044874 0.8325,22.562501 -4.26063,32.624376 z"
     fill="#94e7ff"
     id="path6"
     style="stroke-width:0.125" />
  <path
     fill-rule="evenodd"
     clip-rule="evenodd"
     d="M 18.507249,63.875125 C 18.487739,53.236251 22.294874,42.949752 29.225125,34.916749 l 0.04413,-0.04451 c 0.22,-0.265254 0.483501,-0.575003 0.702749,-0.840251 0.439251,-0.486501 0.878501,-0.972504 1.361877,-1.459128 4.075248,-4.109875 8.915872,-7.370498 14.244622,-9.595248 5.328752,-2.224751 11.041125,-3.369876 16.810125,-3.369876 5.769,0 11.481373,1.145125 16.810248,3.369876 5.328749,2.22475 10.169251,5.485373 14.244627,9.595248 19.720627,19.849376 -5.666,45.449125 -36.852624,44.476627 v 8.665762 L 29.752136,66.348381 56.58976,46.986755 v 8.753626 C 65.462259,54.369629 81.143381,50.346507 76.531381,39.116755 70.294123,23.598499 25.886499,27.180128 18.507249,63.875125 Z"
     fill="#00c5ff"
     id="path8"
     style="stroke-width:0.125" />
  <defs
     id="defs15">
    <linearGradient
       id="paint0_linear"
       x1="0"
       y1="0"
       x2="220.368"
       y2="1138.51"
       gradientUnits="userSpaceOnUse"
       gradientTransform="scale(0.125)">
      <stop
         stop-color="#005474"
         id="stop10" />
      <stop
         offset="1"
         stop-color="#063752"
         id="stop12" />
    </linearGradient>
  </defs>
</svg>

<?xml version="1.0" encoding="UTF-8"?>
<!-- Created with Inkscape (http://www.inkscape.org/) -->
<svg width="128" height="128" version="1.1" viewBox="0 0 33.867 33.867" xmlns="http://www.w3.org/2000/svg">
 <defs>
  <linearGradient id="paint0_linear" x2="220.37" y2="1138.5" gradientTransform="scale(.125)" gradientUnits="userSpaceOnUse">
   <stop stop-color="#005474" offset="0"/>
   <stop stop-color="#063752" offset="1"/>
  </linearGradient>
 </defs>
 <g transform="translate(-47.323 -68.4)">
  <g transform="matrix(.26458 0 0 .26458 47.323 68.4)" stroke-width=".125">
   <rect width="128" height="128" fill="#fff"/>
   <path d="m0 0h128v128h-128z" fill="url(#paint0_linear)"/>
   <path d="m103.63 91.109-4.0412-3.6695c-3.5158 5.6136-8.2418 10.359-13.828 13.884-5.5859 3.5248-11.888 5.7388-18.44 6.4779-6.5519 0.73925-13.185-0.0155-19.407-2.2081-6.2225-2.1925-11.875-5.7667-16.538-10.458-3.4529-3.4614-6.3041-7.4814-8.435-11.893 13.529 16.093 48.361 12.688 69.664-2.122l-6.1495-5.5261c17.394-7.1183 21.35-16.933 21.435-17.11 2.3366 11.045 0.8325 22.563-4.2606 32.624z" clip-rule="evenodd" fill="#94e7ff" fill-rule="evenodd"/>
   <path d="m18.507 63.875c-0.01951-10.639 3.7876-20.925 10.718-28.958l0.04413-0.04451c0.22-0.26525 0.4835-0.575 0.70275-0.84025 0.43925-0.4865 0.8785-0.9725 1.3619-1.4591 4.0752-4.1099 8.9159-7.3705 14.245-9.5952 5.3288-2.2248 11.041-3.3699 16.81-3.3699s11.481 1.1451 16.81 3.3699c5.3287 2.2248 10.169 5.4854 14.245 9.5952 19.721 19.849-5.666 45.449-36.853 44.477v8.6658l-26.839-19.367 26.838-19.362v8.7536c8.8725-1.3708 24.554-5.3939 19.942-16.624-6.2373-15.518-50.645-11.937-58.024 24.758z" clip-rule="evenodd" fill="#00c5ff" fill-rule="evenodd"/>
  </g>
 </g>
</svg>
